src/ideal-issuers/bunq/ideal-issuer-bunq-mollie-32x24.svg

<svg fill="none" height="24" viewBox="0 0 32 24" width="32" xmlns="http://www.w3.org/2000/svg" xmlns:xlink="http://www.w3.org/1999/xlink"><mask id="a" height="24" maskUnits="userSpaceOnUse" width="32" x="0" y="0"><rect fill="#c4c4c4" height="24" rx="4" width="32"/></mask><g mask="url(#a)"><path d="m0 0h3v24h-3z" fill="#008f42"/><path d="m0 0h3v24h-3z" fill="#00ab47" transform="translate(3)"/><path d="m0 0h3v24h-3z" fill="#52c638" transform="translate(6)"/><path d="m0 0h3v24h-3z" fill="#96c65a" transform="translate(9)"/><path d="m0 0h3v24h-3z" fill="#00c4b5" transform="translate(12)"/><path d="m0 0h2v24h-2z" fill="#00a2dc" transform="translate(15)"/><path d="m0 0h3v24h-3z" fill="#0a6cb8" transform="translate(17)"/><path d="m0 0h3v24h-3z" fill="#46597d" transform="translate(20)"/><path d="m0 0h3v24h-3z" fill="#ff001a" transform="translate(23)"/><path d="m0 0h3v24h-3z" fill="#ff6b00" transform="translate(26)"/><path d="m0 0h3v24h-3z" fill="#f7c000" transform="translate(29)"/><g clip-rule="evenodd" fill="#fff" fill-rule="evenodd"><path d="m6.99969 0h1.99991v5.24999c0 2.4835-2.01641 4.49999-4.4998 4.49999s-4.4998-2.01649-4.4998-4.49999v-5.24999h1.99991v5.24999c0 1.51775 1.1202 2.75 2.49989 2.75s2.49989-1.23225 2.49989-2.75z" transform="matrix(.499997 0 0 .499997 11.0003 10.125)"/><path d="m6.99969 0h1.99991v5.24999c0 2.4835-2.01641 4.49999-4.4998 4.49999s-4.4998-2.01649-4.4998-4.49999v-5.24999h1.99991v5.24999c0 1.51775 1.1202 2.75 2.49989 2.75s2.49989-1.23225 2.49989-2.75z" transform="matrix(.499997 0 0 -.500001 16.5057 14.875)"/><path d="m1.74992 13.75h-1.74992v-4.50002h.00750699c-.00499978-.08275-.00750699-.16625-.00750699-.25v-8.99998h1.99991v5.00074c.83496-.62825 1.87492-1.00075 2.99987-1.00075 2.75988 0 4.99978 2.2405 4.99978 4.99999 0 2.75952-2.2399 5.00002-4.99978 5.00002-1.19495 0-2.2924-.4203-3.15236-1.1208zm3.12486-8.00001c1.72493 0 3.12487 1.45625 3.12487 3.24999 0 1.79372-1.39994 3.25002-3.12487 3.25002-1.72492 0-3.12486-1.4563-3.12486-3.25002 0-1.79374 1.39994-3.24999 3.12486-3.24999z" transform="matrix(.499997 0 0 .499997 5 8)"/><path d="m1.74992 13.75h-1.74992v-4.50002h.00750699c-.00499978-.08275-.00750699-.16625-.00750699-.25v-8.99998h1.99991v5.00074c.83496-.62825 1.87492-1.00075 2.99987-1.00075 2.75988 0 4.99978 2.2405 4.99978 4.99999 0 2.75952-2.2399 5.00002-4.99978 5.00002-1.19495 0-2.2924-.4203-3.15236-1.1208zm3.12486-8.00001c1.72493 0 3.12487 1.45625 3.12487 3.24999 0 1.79372-1.39994 3.25002-3.12487 3.25002-1.72492 0-3.12486-1.4563-3.12486-3.25002 0-1.79374 1.39994-3.24999 3.12486-3.24999z" transform="matrix(-.499997 0 0 -.499997 27 17)"/></g></g></svg>

<svg width="32" height="24" viewBox="0 0 32 24" fill="none" xmlns="http://www.w3.org/2000/svg">
<mask id="mask" maskUnits="userSpaceOnUse" x="0" y="0" width="32" height="24">
<rect width="32" height="24" rx="4" fill="#C4C4C4"/>
</mask>
<g mask="url(#mask)">
<rect width="3" height="24" fill="#008F42"/>
<rect width="3" height="24" transform="translate(3)" fill="#00AB47"/>
<rect width="3" height="24" transform="translate(6)" fill="#52C638"/>
<rect width="3" height="24" transform="translate(9)" fill="#96C65A"/>
<rect width="3" height="24" transform="translate(12)" fill="#00C4B5"/>
<rect width="2" height="24" transform="translate(15)" fill="#00A2DC"/>
<rect width="3" height="24" transform="translate(17)" fill="#0A6CB8"/>
<rect width="3" height="24" transform="translate(20)" fill="#46597D"/>
<rect width="3" height="24" transform="translate(23)" fill="#FF001A"/>
<rect width="3" height="24" transform="translate(26)" fill="#FF6B00"/>
<rect width="3" height="24" transform="translate(29)" fill="#F7C000"/>
<path fill-rule="evenodd" clip-rule="evenodd" d="M6.99969 0H8.9996V5.24999C8.9996 7.73349 6.98319 9.74998 4.4998 9.74998C2.01641 9.74998 0 7.73349 0 5.24999V0H1.99991V5.24999C1.99991 6.76774 3.12011 7.99999 4.4998 7.99999C5.87949 7.99999 6.99969 6.76774 6.99969 5.24999V0Z" transform="translate(11.0003 10.125) scale(0.499997)" fill="white"/>
<path fill-rule="evenodd" clip-rule="evenodd" d="M6.99969 0H8.9996V5.24999C8.9996 7.73349 6.98319 9.74998 4.4998 9.74998C2.01641 9.74998 0 7.73349 0 5.24999V0H1.99991V5.24999C1.99991 6.76774 3.12011 7.99999 4.4998 7.99999C5.87949 7.99999 6.99969 6.76774 6.99969 5.24999V0Z" transform="translate(16.5057 14.875) scale(0.499997 -0.500001)" fill="white"/>
<path fill-rule="evenodd" clip-rule="evenodd" d="M1.74992 13.75H0V9.24998H0.00750699C0.00250721 9.16723 0 9.08373 0 8.99998V0H1.99991V5.00074C2.83487 4.37249 3.87483 3.99999 4.99978 3.99999C7.75966 3.99999 9.99956 6.24049 9.99956 8.99998C9.99956 11.7595 7.75966 14 4.99978 14C3.80483 14 2.70738 13.5797 1.84742 12.8792L1.74992 13.75ZM4.87478 5.74999C6.59971 5.74999 7.99965 7.20624 7.99965 8.99998C7.99965 10.7937 6.59971 12.25 4.87478 12.25C3.14986 12.25 1.74992 10.7937 1.74992 8.99998C1.74992 7.20624 3.14986 5.74999 4.87478 5.74999Z" transform="translate(5 8) scale(0.499997)" fill="white"/>
<path fill-rule="evenodd" clip-rule="evenodd" d="M1.74992 13.75H0V9.24998H0.00750699C0.00250721 9.16723 0 9.08373 0 8.99998V0H1.99991V5.00074C2.83487 4.37249 3.87483 3.99999 4.99978 3.99999C7.75966 3.99999 9.99956 6.24049 9.99956 8.99998C9.99956 11.7595 7.75966 14 4.99978 14C3.80483 14 2.70738 13.5797 1.84742 12.8792L1.74992 13.75ZM4.87478 5.74999C6.59971 5.74999 7.99965 7.20624 7.99965 8.99998C7.99965 10.7937 6.59971 12.25 4.87478 12.25C3.14986 12.25 1.74992 10.7937 1.74992 8.99998C1.74992 7.20624 3.14986 5.74999 4.87478 5.74999Z" transform="translate(27 17) scale(0.499997) rotate(180)" fill="white"/>
</g>
</svg>
